public/library/tokan-exchange-icon-dark.svg

<svg width="46" height="46" viewBox="0 0 46 46" fill="none" xmlns="http://www.w3.org/2000/svg">
<path d="M45.2834 22.9986C45.2834 10.6916 35.3066 0.714844 22.9997 0.714844C10.6927 0.714844 0.715942 10.6916 0.715942 22.9986C0.715942 35.3055 10.6927 45.2823 22.9997 45.2823C35.3066 45.2823 45.2834 35.3055 45.2834 22.9986Z" fill="#2E5DF5"/>
<g clip-path="url(#clip0_2278_4678)">
<path d="M7.47498 19.4654H37.71M18.0491 35.8451C12.0233 35.3785 7.47498 31.474 7.47498 26.4268V19.9567C7.47498 14.9094 12.1891 10.7621 18.2151 10.2954M18.1971 10.2966C18.5007 10.2684 18.8082 10.2539 19.1192 10.2539H28.1522C33.4297 10.2539 37.6484 14.7585 37.7351 19.9178M37.1349 19.4617C35.2188 21.5715 32.3691 22.909 29.187 22.909H19.4124C19.0757 22.909 18.743 22.8941 18.4145 22.8648M18.2984 10.2954V36.1928M15.7739 16.5923C15.7739 16.8764 15.5449 17.1067 15.2623 17.1067C14.9797 17.1067 14.7506 16.8764 14.7506 16.5923C14.7506 16.3083 14.9797 16.078 15.2623 16.078C15.5449 16.078 15.7739 16.3083 15.7739 16.5923Z" stroke="white" stroke-width="1.80296" stroke-miterlimit="10"/>
</g>
<defs>
<clipPath id="clip0_2278_4678">
<rect width="31.3056" height="26.8333" fill="white" transform="translate(7.02777 9.58203)"/>
</clipPath>
</defs>
</svg>

<svg xmlns="http://www.w3.org/2000/svg" width="46" height="46" fill="none" viewBox="0 0 46 46"><path fill="#2e5df5" d="M45.283 22.999C45.283 10.692 35.307.715 23 .715S.716 10.692.716 22.999 10.693 45.282 23 45.282 45.283 35.306 45.283 23"/><g clip-path="url(#a)"><path stroke="#fff" stroke-miterlimit="10" stroke-width="1.803" d="M7.475 19.465H37.71m-19.66 16.38c-6.027-.466-10.575-4.371-10.575-9.418v-6.47c0-5.048 4.714-9.195 10.74-9.662m-.018.002q.456-.043.922-.043h9.033c5.278 0 9.496 4.505 9.583 9.664m-.6-.456c-1.916 2.11-4.766 3.447-7.948 3.447h-9.775q-.505 0-.997-.044m-.117-12.57v25.898m-2.524-19.6a.513.513 0 0 1-.512.514.513.513 0 0 1-.511-.515c0-.284.229-.514.511-.514s.512.23.512.514Z"/></g><defs><clipPath id="a"><path fill="#fff" d="M7.028 9.582h31.306v26.833H7.028z"/></clipPath></defs></svg>
